src/actions/symbolic/mountain-symbolic.svg

<svg width="16" height="16" version="1.1" xmlns="http://www.w3.org/2000/svg">
 <g fill="#363636" stroke="#000000" stroke-width="2">
  <g fill="#363636">
   <path d="m8.9336 2.7656-2.0762 3.8047 4.7129 7.4297h4.4297l-7.0664-11.234zm0.060547 1.9766 5.1953 8.2578h-2.0684l-4.1035-6.4688 0.97656-1.7891zm-4.248 0.55469-4.7461 8.7031h10.285l-5.5391-8.7031zm0.066406 1.9668 3.6504 5.7363h-6.7793l3.1289-5.7363z" color="#000000" fill="#363636" stroke="none" style="-inkscape-stroke:none"/>
  </g>
 </g>
</svg>

<svg xmlns="http://www.w3.org/2000/svg" width="16" height="16">
    <path fill="#050505" fill-opacity=".7" stroke="none" stroke-width="2" d="M8.934 2.766 6.857 6.57 11.57 14H16L8.934 2.766zm.06 1.976L14.19 13h-2.068L8.018 6.531l.976-1.789zm-4.248.555L0 14h10.285l-5.54-8.703zm.067 1.967L8.463 13h-6.78l3.13-5.736z" color="#000" opacity=".7" style="-inkscape-stroke:none"/>
</svg>
